X: 01059
T: JOANNA'S JIG
C: Bob McQuillen Dec'75
B: Bob's Note Book 1 #59
R: jig
Z: 2019 John Chambers <jc:trillian.mit.edu>
M: 6/8
L: 1/8
K: G
d \
| g2d cBA | GFE DEF | GAB cde | dcB A2d |\
| g2d cBA | GFE DEF | GAB cdc | BGG G2 :|
|: d \
| Bdd edd | gdd edc | Bcd edc | BAG A2d |\
| Bdd edd | gdd edd | gfg aga | bgg g2 :|
%%begintext align
%% For Jo Eldredge, with
%% love always from Mac.
%%endtext

%%sep 1 1 500

%%sep 1 1 500

